lib/radiotmp/nrk-reorder.svg

<svg width="24" height="24" viewBox="0 0 24 24" fill="none" xmlns="http://www.w3.org/2000/svg">
<path d="M7 2L13 5.9V8.17229L8 4.9223L8 17.0023L6 17.0023L6 4.9223L1 8.1723V5.9L7 2Z" fill="black"/>
<path d="M16 19.0799V6.99991L18 6.99992V19.0799L23 15.8299V18.1022L17 22.0022L11 18.1022V15.8299L16 19.0799Z" fill="black"/>
</svg>

<svg xmlns="http://www.w3.org/2000/svg" viewBox="0 0 24 24"><path fill="#000" d="m7 2 6 3.9v2.272l-5-3.25v12.08H6V4.922l-5 3.25V5.9L7 2ZM16 19.08V7h2v12.08l5-3.25v2.272l-6 3.9-6-3.9V15.83l5 3.25Z"/></svg>
